X:1
T:Title
%%score { ( 1 3 ) | ( 2 4 ) }
L:1/8
Q:1/4=108
M:4/4
K:G
V:1 treble nm="Grand Piano"
V:3 treble 
V:2 treble 
V:4 treble 
V:1
 B2 G>A B2 B2 | B4 d4 | G2 G>G c2 B2 | [FA]6 z2 | B2 G>A B2 B2 | B4 d4 | A2 A>A d2 [G^c]2 | %7
w: W.~H.~Doane * * * *|||||||
 [Fd]6 z2 | d4 B2 G2 | [FA]2 [GB]2 [Ac]2 [Fe]2 | d4 B2 G2 | [FA]2 [GB]2 [Ac]4 | %12
w: |||||
 [GB]2 [GB]>[GB] [Gc]2 [Gd]2 | [Ge]4 c2 A2 | G2 F>G [GB]2 A2 | G6 z2 |] %16
w: ||||
V:2
 [G,DG]2 [G,B,D]>[G,CD] [G,DG]2 [G,DG]2 | [G,DG]4 [G,B,G]4 | [CE]2 [B,D]>[B,D] [A,DF]2 [G,DG]2 | %3
 [D,D]6 z2 | [G,DG]2 [G,B,D]>[G,CD] [G,DG]2 [G,DG]2 | [G,DG]4 [G,B,G]4 | %6
 [A,DF]2 [A,DF]>[A,DF] [A,DF]2[K:bass] [A,,A,]2 | [D,A,]6 z2 | [G,B,G]4 [G,DG]2[K:bass] [G,B,D]2 | %9
 [D,D]2 [D,D]2 [D,D]2 [D,C]2 | [G,B,G]4 [G,DG]2[K:bass] [G,B,D]2 | [D,D]2 [D,D]2 [D,D]4 | %12
 [G,D]2 [G,D]>[=F,C] [E,C]2 [D,B,]2 | [C,C]4 G,2 C2 | [D,B,D]2 [D,A,D]>[D,B,D] [D,D]2 [D,CD]2 | %15
 [G,B,D]6 z2 |] %16
V:3
 x8 | x8 | x8 | x8 | x8 | x8 | x8 | x8 | x8 | x8 | x8 | x8 | x8 | z4 E4 | x8 | x8 |] %16
V:4
 x8 | x8 | x8 | x8 | x8 | x8 | x6[K:bass] x2 | x8 | x6[K:bass] x2 | x8 | x6[K:bass] x2 | x8 | x8 | %13
 z4 C,4 | x8 | x8 |] %16

